src/static/favicon-dev.svg

<svg width="32" height="32" viewBox="0 0 32 32" fill="none" xmlns="http://www.w3.org/2000/svg">
<rect width="32" height="32" fill="white"/>
<path d="M20.4443 3.725H17.8034C17.4797 3.725 17.1967 3.94316 17.1144 4.25617L10.9876 27.538C10.8895 27.9105 11.1705 28.275 11.5557 28.275H14.1966C14.5203 28.275 14.8033 28.0568 14.8856 27.7438L21.0124 4.46201C21.1105 4.08949 20.8295 3.725 20.4443 3.725Z" fill="white" stroke="#4F448F" stroke-width="0.8"/>
</svg>

<svg fill="none" height="32" width="32" xmlns="http://www.w3.org/2000/svg"><g fill="#fff"><path d="M0 0h32v32H0z"/><path d="M20.444 3.725h-2.64a.712.712 0 00-.69.531l-6.126 23.282a.587.587 0 00.568.737h2.64a.712.712 0 00.69-.531l6.126-23.282a.587.587 0 00-.568-.737z" stroke="#4f448f" stroke-width=".8"/></g></svg>
